X:1
T:My Bucket's got a Hole in it
C:Clarence Williams (1933)
M:4/4
L:1/8
F:https://www.youtube.com/watch?v=OVM2-eX38dI
R:traditional
Q:108
K:F
A^GA=G FD ||: "Bb7" F2 DB,-B,4 | z ^G AG A=GFD | "F" F2 FC-C4 |
z ^G AG A^G A2| "C7" c2 cC-C4 | z2 dc dc^GA-|"F"A6 _A=G-|"F7"G2 =A^G A=GFD |
"Bb7" F2 DB,-B,4 | "Bb7" z ^G AG A=GFD | "F" F2 FC-C4 | z4 A^G A2|
"C7" c2 cC-C4 | z2 d2c2 AF-|"F" F8-  "Bb7" yyy |"F7" F2 A^GA=G FD :|]